rospo-icon-theme-classic-common/64x64/apps/com.github.alonsoenrique.quotes.svg

<svg height="64" width="64" xmlns="http://www.w3.org/2000/svg"><path d="m4.0012006 44.50029v1.999957c0 1.723963 1.3871702 3.433926 3.1093333 3.499925h25.8894451l6.999849 7.999828 6.99985-7.999828h9.889788c1.723963 0 3.109933-1.775962 3.109933-3.499925v-1.999957c0 1.723963-1.38597 3.499924-3.109933 3.499924h-9.889788l-6.99985 7.999829-6.999849-7.999829h-25.8894451c-1.723363-.066-3.1105333-1.775961-3.1105333-3.499924z" opacity=".2"/><path d="m7.1123339 7.0011154c-1.7235631 0-3.1111333 1.7763619-3.1111333 3.4999246v34.99925c0 1.723963 1.3887702 3.433926 3.1111333 3.499924h25.8874451l6.999849 7.999829 6.99985-7.999829h9.888588c1.723963 0 3.111933-1.775961 3.111933-3.499924v-34.99925c0-1.7235627-1.38797-3.4999246-3.111933-3.4999246z" fill="#8e8e8e"/><path d="m7.1113281 7.0019531c-1.723563 0-3.109375 1.7764373-3.109375 3.4999999v1c0-1.7235626 1.385812-3.4999999 3.109375-3.4999999h49.7773439c1.723963 0 3.111328 1.7764373 3.111328 3.4999999v-1c0-1.7235626-1.387365-3.4999999-3.111328-3.4999999z" fill="#fff" opacity=".1"/><path d="m41.5 40.500499-4.674828-2.817596m-5.825172-20.182404c6.701405 0 6.525125 5.613066 6.525125 11.19832 0 5.585251.227233 11.783888-6.525125 11.783888-6.558724-.000002-6.473711-6.214065-6.473711-11.799316 0-5.585254-.327588-11.182892 6.473711-11.182892" fill="none" opacity=".2" stroke="#000" stroke-linecap="round" stroke-width="5"/><path d="m41.5 39.5-4.674828-2.817596m-5.825172-20.182404c6.701405 0 6.525125 5.613066 6.525125 11.19832 0 5.585251.227233 11.783888-6.525125 11.783888-6.558724-.000002-6.473711-6.214065-6.473711-11.799316 0-5.585254-.327588-11.182892 6.473711-11.182892" fill="none" stroke="#fff" stroke-linecap="round" stroke-width="5"/></svg>

<svg xmlns="http://www.w3.org/2000/svg" width="64" height="64" version="1">
 <path style="opacity:0.2" d="m 4.0012006,44.50029 0,1.999957 c 0,1.723963 1.3871702,3.433926 3.1093333,3.499925 l 25.8894451,0 L 39.999828,58 l 6.99985,-7.999828 9.889788,0 c 1.723963,0 3.109933,-1.775962 3.109933,-3.499925 l 0,-1.999957 c 0,1.723963 -1.38597,3.499924 -3.109933,3.499924 l -9.889788,0 -6.99985,7.999829 -6.999849,-7.999829 -25.8894451,0 c -1.723363,-0.066 -3.1105333,-1.775961 -3.1105333,-3.499924 z"/>
 <path style="fill:#8e8e8e" d="m 7.1123339,7.0011154 c -1.7235631,0 -3.1111333,1.7763619 -3.1111333,3.4999246 l 0,34.99925 c 0,1.723963 1.3887702,3.433926 3.1111333,3.499924 l 25.8874451,0 6.999849,7.999829 6.99985,-7.999829 9.888588,0 c 1.723963,0 3.111933,-1.775961 3.111933,-3.499924 l 0,-34.99925 c 0,-1.7235627 -1.38797,-3.4999246 -3.111933,-3.4999246 z"/>
 <path style="opacity:0.1;fill:#ffffff" d="M 7.1113281 7.0019531 C 5.3877651 7.0019531 4.0019531 8.7783904 4.0019531 10.501953 L 4.0019531 11.501953 C 4.0019531 9.7783904 5.3877651 8.0019531 7.1113281 8.0019531 L 56.888672 8.0019531 C 58.612635 8.0019531 60 9.7783904 60 11.501953 L 60 10.501953 C 60 8.7783904 58.612635 7.0019531 56.888672 7.0019531 L 7.1113281 7.0019531 z"/>
 <path style="opacity:0.2;fill:none;stroke:#000000;stroke-width:5;stroke-linecap:round" d="M 41.5,40.500499 36.825172,37.682903 M 31,17.500499 c 6.701405,0 6.525125,5.613066 6.525125,11.19832 0,5.585251 0.227233,11.783888 -6.525125,11.783888 -6.558724,-2e-6 -6.473711,-6.214065 -6.473711,-11.799316 0,-5.585254 -0.327588,-11.182892 6.473711,-11.182892"/>
 <path d="M 41.5,39.5 36.825172,36.682404 M 31,16.5 c 6.701405,0 6.525125,5.613066 6.525125,11.19832 0,5.585251 0.227233,11.783888 -6.525125,11.783888 -6.558724,-2e-6 -6.473711,-6.214065 -6.473711,-11.799316 C 24.526289,22.097638 24.198701,16.5 31,16.5" style="fill:none;stroke:#ffffff;stroke-width:5;stroke-linecap:round"/>
</svg>
